X:106
T:Old Flail
Z: id:dc-jig-87
M:6/8
L:1/8
K:G Major
DEG GAB|deg gab|age ege|dBG AGE|!
DEG GAB|deg gab|age ege|dBG A3:|!
a3 a^ga|ega ega|d2g ged|ged BGE|!
DEG GAB|deg gab|age ege|dBG A3:|!

